svgs/sharp-regular/file-word.svg

<svg xmlns="http://www.w3.org/2000/svg" viewBox="0 0 384 512"><!--! Font Awesome Pro 6.6.0 by @fontawesome - https://fontawesome.com License - https://fontawesome.com/license (Commercial License) Copyright 2024 Fonticons, Inc. --><path d="M48 464L48 48l176 0 0 112 112 0 0 304L48 464zM256 0L48 0 0 0 0 48 0 464l0 48 48 0 288 0 48 0 0-48 0-336L256 0zM114.7 224l-49.5 0 47.5 189.8 4.5 18.2 18.7 0 8 0 18.4 0 4.8-17.7 24.8-92 24.8 92 4.8 17.7 18.4 0 8 0 18.7 0 4.5-18.2L318.7 224l-49.5 0-26 104L220 241.7 215.2 224l-18.4 0-9.6 0-18.4 0L164 241.7 140.7 328l-26-104z"/></svg>

<svg xmlns="http://www.w3.org/2000/svg" viewBox="0 0 384 512"><!--! Font Awesome Pro 6.4.0 by @fontawesome - https://fontawesome.com License - https://fontawesome.com/license (Commercial License) Copyright 2023 Fonticons, Inc. --><path d="M48 464V48H224V160H336V464H48zM256 0H48 0V48 464v48H48 336h48V464 128L256 0zM114.7 224H65.3l47.5 189.8 4.5 18.2H136h8 18.4l4.8-17.7 24.8-92 24.8 92 4.8 17.7H240h8 18.7l4.5-18.2L318.7 224H269.3l-26 104L220 241.7 215.2 224H196.8h-9.6H168.8L164 241.7 140.7 328l-26-104z"/></svg>
